!!!SOCIAL_FUNCTION:	songs of the peyote ceremony
!!!PDT:	1936
!!!OTL: No_51_Midnight_Song_of_Peyote_Ceremony.krn
!!!REG: Oklahoma and Montana
!!!LANG: Tone
!!!LING_GROUP: Algonquin
**kern
*staff1
=1-
*clefF4
*k[b-e-a-d-g-]
*M2/4
8d-\L
8d-\J
8d-\L
8d-\J
=2
*M3/4
4d-\
4d-\
4d-\
=3
*M2/4
8A-\L
8A-\J
4A-\
=4
4A-\
8A-\L
8A-\J
=5
8A-\
8r
8A-\L
8A-\J
=6
4A-\
(8B-\L
8A-\J)
=7
*M3/4
8A-\L
8A-\J
8A-\
8r
4r
=8
*M2/4
4A-\
8B-\L
8A-\J
=9
(8A-\L
8E-\J)
8A-\L
8A-\J
=10
4A-\
4A-\
=11
*M3/4
4D-\
8D-\L
8D-\J
8D-\
8r
=12
4D-\
4D-\
4D-\
=13
*M2/4
4D-\
4r
=14
(8c\L
8B-\J)
(8A-\L
8Gn\J)
=15
4A-\
8A-\L
8A-\J
=16
(8A-\L
16E-\Jk)
16r
8A-\L
8A-\J
=17
4A-\
8B-\L
8A-\J
=18
*M3/4
8A-\L
8A-\J
4A-\
4r
=19
*M2/4
4A-\
8A-\L
8A-\J
=20
(8A-\L
16E-\Jk)
16r
8A-\L
8A-\J
=21
8A-\L
8A-\J
4A-\
=22
4D-\
8D-\L
8D-\J
=23
8D-\L
8D-\J
8D-\
8r
=24
4D-\
8D-\L
8D-\J
=25
8D-\
8r
8D-\L
8D-\J
=26
8D-\
8r
4D-\
=27
4AA-/
4AA-/
=28
4AA-/
8AA-/L
8AA-/J
=29
8AA-/
8r
8AA-/L
8AA-/J
=30
8AA-/L
8AA-/J
4AA-/
=31
*M3/4
4AA-/
4AA-/
4r
=32
*M2/4
4AA-/
8AA-/L
8AA-/J
=33
8AA-/
8r
8AA-/L
8AA-/J
=34
4AA-/
8BB-/L
8AA-/J
=35
4AA-/
8AA-/L
8AA-/J
=36
8AA-/
4.r
==
*-
